svg/file_arrow_up_down_outline.svg

<svg xmlns="http://www.w3.org/2000/svg" viewBox="0 0 24 24"><path d="M13.09 20c.12.72.37 1.39.72 2H6c-1.11 0-2-.89-2-2V4a2 2 0 0 1 2-2h8l6 6v5.09c-.33-.05-.66-.09-1-.09s-.67.04-1 .09V9h-5V4H6v16zM17 15l-2.5 3H16v4h2v-4h1.5zm5 5v-4h-2v4h-1.5l2.5 3 2.5-3z"/></svg>

<svg xmlns="http://www.w3.org/2000/svg" id="mdi-file-arrow-up-down-outline" viewBox="0 0 24 24"><path d="M13.09 20C13.21 20.72 13.46 21.39 13.81 22H6C4.89 22 4 21.11 4 20V4C4 2.9 4.89 2 6 2H14L20 8V13.09C19.67 13.04 19.34 13 19 13C18.66 13 18.33 13.04 18 13.09V9H13V4H6V20H13.09M17 15L14.5 18H16V22H18V18H19.5L17 15M22 20V16H20V20H18.5L21 23L23.5 20H22Z" /></svg>
